flaticon/design/cone.svg

<svg xmlns="http://www.w3.org/2000/svg" width="32" height="32" viewBox="0 0 24 24">
    <path d="M8.328125 19.523438C8.046875 19.539062 7.769531 19.554688 7.496094 19.570312 7.269531 19.582031 7.09375 19.777344 7.109375 20.007812 7.121094 20.226562 7.304688 20.394531 7.523438 20.394531 7.53125 20.394531 7.539062 20.394531 7.546875 20.394531 7.816406 20.378906 8.089844 20.363281 8.371094 20.351562 8.597656 20.339844 8.773438 20.144531 8.761719 19.917969 8.75 19.691406 8.554688 19.511719 8.328125 19.523438zM3.339844 19.992188C3.042969 20.039062 2.765625 20.085938 2.507812 20.136719 2.285156 20.183594 2.140625 20.398438 2.183594 20.625 2.222656 20.820312 2.394531 20.957031 2.589844 20.957031 2.617188 20.957031 2.644531 20.953125 2.671875 20.949219 2.917969 20.898438 3.183594 20.851562 3.46875 20.808594 3.695312 20.773438 3.847656 20.558594 3.8125 20.335938 3.777344 20.109375 3.566406 19.957031 3.339844 19.992188zM10.824219 19.449219C10.546875 19.453125 10.269531 19.457031 9.992188 19.464844 9.765625 19.46875 9.585938 19.660156 9.589844 19.890625 9.597656 20.113281 9.78125 20.292969 10.003906 20.292969 10.007812 20.292969 10.011719 20.292969 10.015625 20.292969 10.285156 20.285156 10.558594 20.28125 10.839844 20.277344 11.066406 20.273438 11.25 20.085938 11.246094 19.855469 11.242188 19.628906 11.046875 19.445312 10.824219 19.449219zM5.835938 19.691406C5.546875 19.71875 5.269531 19.746094 5.003906 19.773438 4.777344 19.796875 4.609375 20 4.636719 20.230469 4.65625 20.441406 4.835938 20.597656 5.046875 20.597656 5.0625 20.597656 5.074219 20.597656 5.089844 20.597656 5.355469 20.570312 5.625 20.542969 5.90625 20.515625 6.136719 20.496094 6.304688 20.296875 6.28125 20.066406 6.261719 19.839844 6.0625 19.671875 5.835938 19.691406zM15.820312 19.53125C15.546875 19.519531 15.269531 19.503906 14.988281 19.496094 14.761719 19.488281 14.566406 19.664062 14.558594 19.894531 14.546875 20.121094 14.726562 20.3125 14.957031 20.324219 15.234375 20.332031 15.507812 20.34375 15.777344 20.359375 15.785156 20.359375 15.792969 20.359375 15.796875 20.359375 16.015625 20.359375 16.199219 20.1875 16.210938 19.964844 16.222656 19.738281 16.046875 19.542969 15.820312 19.53125zM20.808594 20.015625C20.542969 19.972656 20.265625 19.929688 19.976562 19.890625 19.75 19.863281 19.542969 20.019531 19.511719 20.246094 19.480469 20.472656 19.640625 20.679688 19.867188 20.710938 20.148438 20.75 20.417969 20.789062 20.671875 20.832031 20.695312 20.835938 20.71875 20.835938 20.742188 20.835938 20.941406 20.835938 21.113281 20.691406 21.148438 20.488281 21.183594 20.265625 21.03125 20.050781 20.808594 20.015625zM18.3125 19.707031C18.042969 19.679688 17.765625 19.65625 17.480469 19.636719 17.253906 19.617188 17.054688 19.789062 17.039062 20.015625 17.019531 20.246094 17.191406 20.445312 17.417969 20.460938 17.699219 20.484375 17.972656 20.503906 18.238281 20.53125 18.25 20.53125 18.265625 20.53125 18.277344 20.53125 18.488281 20.53125 18.667969 20.371094 18.6875 20.15625 18.707031 19.929688 18.542969 19.726562 18.3125 19.707031zM13.320312 19.449219C13.046875 19.445312 12.769531 19.441406 12.488281 19.441406 12.257812 19.441406 12.074219 19.625 12.074219 19.851562 12.070312 20.082031 12.257812 20.269531 12.484375 20.269531 12.761719 20.269531 13.035156 20.273438 13.308594 20.277344 13.308594 20.277344 13.3125 20.277344 13.316406 20.277344 13.539062 20.277344 13.726562 20.097656 13.730469 19.871094 13.734375 19.644531 13.550781 19.453125 13.320312 19.449219zM13.320312 19.449219"/>
    <path d="M 23.996094 21.488281 C 23.996094 21.460938 23.988281 21.433594 23.980469 21.40625 C 23.972656 21.378906 23.964844 21.351562 23.953125 21.328125 C 23.949219 21.320312 23.953125 21.3125 23.945312 21.308594 L 12.359375 0.617188 C 12.214844 0.355469 11.785156 0.355469 11.640625 0.617188 L 0.230469 20.992188 C 0.113281 21.113281 0.03125 21.261719 0.0117188 21.441406 C 0.0078125 21.453125 0.00390625 21.46875 0.00390625 21.480469 C 0.00390625 21.492188 0 21.5 0 21.507812 C 0 22.027344 0.445312 22.617188 3.75 23.089844 C 5.957031 23.40625 8.886719 23.578125 12 23.578125 C 15.113281 23.578125 18.042969 23.40625 20.25 23.089844 C 23.554688 22.617188 24 22.027344 24 21.507812 C 24 21.5 23.996094 21.496094 23.996094 21.488281 Z M 12 22.75 C 5.664062 22.75 1.5625 22.042969 0.890625 21.511719 C 0.945312 21.476562 1.027344 21.425781 1.160156 21.367188 C 1.371094 21.277344 1.46875 21.035156 1.378906 20.824219 C 1.363281 20.792969 1.339844 20.765625 1.316406 20.742188 L 12 1.667969 L 22.472656 20.371094 C 22.25 20.308594 22.023438 20.433594 21.960938 20.652344 C 21.898438 20.875 22.027344 21.101562 22.246094 21.164062 C 22.539062 21.25 22.777344 21.335938 22.953125 21.421875 C 22.996094 21.441406 23.039062 21.453125 23.082031 21.457031 L 23.113281 21.507812 C 22.453125 22.039062 18.347656 22.75 12 22.75 Z M 12 22.75"/>
</svg>

<svg xmlns="http://www.w3.org/2000/svg" width="32" height="32" viewBox="0 0 24 24">
    <path d="M8.328 19.523l-.832.047a.41.41 0 0 0-.387.438.412.412 0 0 0 .414.387h.024c.27-.016.543-.032.824-.043a.414.414 0 0 0-.043-.829zm0 0M3.34 19.992c-.297.047-.574.094-.832.145a.414.414 0 1 0 .082.82c.027 0 .055-.004.082-.008.246-.05.512-.097.797-.14a.414.414 0 0 0-.13-.817zm0 0M10.824 19.45c-.277.003-.554.007-.832.015a.415.415 0 0 0 .012.828h.012c.27-.008.543-.012.824-.016a.414.414 0 0 0 .406-.422.42.42 0 0 0-.422-.406zm0 0M5.836 19.691l-.832.082a.411.411 0 0 0-.367.457c.02.211.199.368.41.368h.043c.265-.028.535-.055.816-.082a.408.408 0 0 0 .375-.45.412.412 0 0 0-.445-.375zm0 0M15.82 19.531c-.273-.011-.55-.027-.832-.035a.415.415 0 0 0-.031.828c.277.008.55.02.82.035h.02a.414.414 0 1 0 .023-.828zm0 0M20.809 20.016a32.116 32.116 0 0 0-.832-.125.414.414 0 1 0-.11.82c.281.039.551.078.805.121a.414.414 0 0 0 .137-.816zm0 0M18.313 19.707c-.27-.027-.547-.05-.833-.07a.409.409 0 0 0-.44.379.41.41 0 0 0 .378.445c.281.023.555.043.82.07h.04a.413.413 0 0 0 .035-.824zm0 0M13.32 19.45a57.98 57.98 0 0 0-.832-.009.411.411 0 0 0-.414.41.412.412 0 0 0 .41.419c.278 0 .551.003.825.007h.007c.223 0 .41-.18.414-.406a.418.418 0 0 0-.41-.422zm0 0"/>
    <path d="M23.996 21.488c0-.027-.008-.054-.016-.082-.007-.027-.015-.054-.027-.078-.004-.008 0-.015-.008-.02L12.36.619c-.144-.263-.574-.263-.718 0L.23 20.991a.755.755 0 0 0-.22.45.139.139 0 0 0-.007.038c0 .012-.004.02-.004.028 0 .52.445 1.11 3.75 1.582 2.207.316 5.137.488 8.25.488 3.113 0 6.043-.172 8.25-.488 3.305-.473 3.75-1.063 3.75-1.582 0-.008-.004-.012-.004-.02zM12 22.75c-6.336 0-10.438-.707-11.11-1.238.055-.035.137-.086.27-.145a.413.413 0 0 0 .219-.543.326.326 0 0 0-.063-.082L12 1.668l10.473 18.703a.412.412 0 1 0-.227.793c.293.086.531.172.707.258.043.02.086.031.129.035l.031.05c-.66.532-4.765 1.243-11.113 1.243zm0 0"/>
</svg>
